X: 2025
T: The Lark In The Morning
B: steve tunes
B: nick
M:6/8
Q: 3/8=110
K:Dmajor
V:1 
|:"D"AFA AFA|"G"BGB BdB|"D"AFA Ade|"D"fed "G"BdB|
 "D"AFA AFA|"G"BGB BdB|"D"def "A"afe|"Bm"fdB "G"BAB:|
 |:"D"def afa|"G"bab afe|"D"def "A"afe|"Bm"fdB "G"BAB|
 "D"def afa|"G"bab "D"a2f|"G"gfg "D"fgf|"Em"edB "G"BAB:|
 |:"D"d2f fef|fef fef|def fef|"Em"edB "G"BAB|
 "D"d2f fef|fef fef|"G"gfg "D"fgf|"Em"edB "G"BAB:|
 |:"D"Add fdd|edd fdB|Add fdd|"Em"edB "G"BAB|
 "D"Add fdd|"A"ede "D"fef|"G"gfg "D"fgf|"Em"edB "G"BAB:|
% abcbook-tune_id 62a420d1189b1b6585372bab


% abcbook-boost 0
% abcbook-tablature 
% abcbook-transpose 
% abcbook-lastupdated 1665491392107
% abcbook-soundfonts 
% abcbook-repeats 3


